SVG_Azure_All/Azure Monitor Data sources.svg

<?xml version="1.0" encoding="UTF-8" standalone="no"?>
<!-- Generated by Microsoft Visio, SVG Export Azure Monitor Data sources.svg Page-1 -->

<svg
   xmlns:dc="http://purl.org/dc/elements/1.1/"
   xmlns:cc="http://creativecommons.org/ns#"
   xmlns:rdf="http://www.w3.org/1999/02/22-rdf-syntax-ns#"
   xmlns:svg="http://www.w3.org/2000/svg"
   xmlns="http://www.w3.org/2000/svg"
   xmlns:xlink="http://www.w3.org/1999/xlink"
   xmlns:sodipodi="http://sodipodi.sourceforge.net/DTD/sodipodi-0.dtd"
   xmlns:inkscape="http://www.inkscape.org/namespaces/inkscape"
   width="0.78734642in"
   height="0.74800062in"
   viewBox="0 0 56.689206 53.855812"
   xml:space="preserve"
   class="st5"
   version="1.1"
   id="svg80"
   sodipodi:docname="Azure Monitor Data sources.svg"
   style="font-size:12px;overflow:visible;color-interpolation-filters:sRGB;fill:none;fill-rule:evenodd;stroke-linecap:square;stroke-miterlimit:3"
   inkscape:version="0.92.5 (2060ec1f9f, 2020-04-08)"><metadata
   id="metadata84"><rdf:RDF><cc:Work
       rdf:about=""><dc:format>image/svg+xml</dc:format><dc:type
         rdf:resource="http://purl.org/dc/dcmitype/StillImage" /></cc:Work></rdf:RDF></metadata><sodipodi:namedview
   pagecolor="#ffffff"
   bordercolor="#666666"
   borderopacity="1"
   objecttolerance="10"
   gridtolerance="10"
   guidetolerance="10"
   inkscape:pageopacity="0"
   inkscape:pageshadow="2"
   inkscape:window-width="640"
   inkscape:window-height="480"
   id="namedview82"
   showgrid="false"
   inkscape:zoom="1.4794443"
   inkscape:cx="37.795293"
   inkscape:cy="34.406234"
   inkscape:window-x="0"
   inkscape:window-y="0"
   inkscape:window-maximized="0"
   inkscape:current-layer="svg80" />
	<style
   type="text/css"
   id="style2">
	<![CDATA[
		.st1 {fill:#5ea0ef;stroke:none;stroke-linecap:butt;stroke-width:31.7654}
		.st2 {fill:#83b9f9;stroke:none;stroke-linecap:butt;stroke-width:31.7654}
		.st3 {fill:url(#grad0-10);stroke:none;stroke-linecap:butt;stroke-width:31.7654}
		.st4 {fill:#ffffff;stroke:none;stroke-linecap:butt;stroke-width:31.7654}
		.st5 {fill:none;fill-rule:evenodd;font-size:12px;overflow:visible;stroke-linecap:square;stroke-miterlimit:3}
	]]>
	</style>

	<defs
   id="Patterns_And_Gradients">
		<linearGradient
   id="grad0-10"
   x1="0"
   y1="0"
   x2="1"
   y2="0"
   gradientTransform="rotate(90,0.5,0.5)">
			<stop
   offset="0"
   stop-color="#5ea0ef"
   stop-opacity="1"
   id="stop4" />
			<stop
   offset="1"
   stop-color="#0078d4"
   stop-opacity="1"
   id="stop6" />
		</linearGradient>
	<linearGradient
   inkscape:collect="always"
   xlink:href="#grad0-10"
   id="linearGradient4594"
   gradientTransform="scale(1.3449189,0.74353928)"
   x1="-5.949038e-06"
   y1="138.60734"
   x2="22.298749"
   y2="138.60734"
   gradientUnits="userSpaceOnUse" /><linearGradient
   inkscape:collect="always"
   xlink:href="#grad0-10"
   id="linearGradient4596"
   gradientTransform="scale(1.3449187,0.74353938)"
   x1="-5.9490388e-06"
   y1="138.60732"
   x2="22.298746"
   y2="138.60732"
   gradientUnits="userSpaceOnUse" /></defs>
	<g
   id="g78"
   transform="translate(-31.7654,-31.768537)">
		<title
   id="title10">Page-1</title>
		<g
   id="group7757-1"
   transform="translate(31.7654,-34.0157)">
			<title
   id="title12">Azure Monitor Data sources</title>
			<g
   id="group7758-2">
				<title
   id="title14">g26</title>
				<g
   id="shape7759-3"
   transform="translate(7.38898,-5.1712)">
					<title
   id="title16">path2</title>
					<path
   d="M 4.58,89.57 V 81.52 A 0.894488,0.89769 0 0 1 5.474488,80.62547 L 22.72,80.62 V 76.13 H 1.79 A 1.78898,1.79538 -180 0 0 0,77.93 V 89.68 Z M 0,105.66 v 12.18 a 1.78898,1.79538 -180 0 0 1.79,1.8 h 20.83 v -4.49 H 5.47 A 0.894488,0.89769 0 0 1 4.575512,114.25547 L 4.58,105.55 Z"
   class="st1"
   id="path18"
   inkscape:connector-curvature="0"
   style="fill:#5ea0ef;stroke:none;stroke-width:31.76539993;stroke-linecap:butt" />
				</g>
				<g
   id="shape7760-5"
   transform="translate(0,-16.5693)">
					<title
   id="title21">path4</title>
					<path
   d="m 0,100.94 v 16.84 a 1.85512,1.86176 -180 0 0 1.86,1.86 H 18.64 A 1.85197,1.8586 -180 0 0 20.5,117.8 V 100.94 A 1.85512,1.86176 -180 0 0 18.66,99.07 H 1.86 A 1.85512,1.86176 -180 0 0 0,100.93 Z m 15.81,1.61 a 1.22835,1.23274 0 0 1 1.23,1.23 v 11.17 a 1.2315,1.2359 0 0 1 -1.23,1.23 H 4.67 a 1.2315,1.2359 0 0 1 -1.22,-1.23 v -11.18 a 1.2315,1.2359 0 0 1 1.22,-1.23 z"
   class="st2"
   id="path23"
   inkscape:connector-curvature="0"
   style="fill:#83b9f9;stroke:none;stroke-width:31.76539993;stroke-linecap:butt" />
				</g>
				<g
   id="shape7761-7"
   transform="translate(26.6992)">
					<title
   id="title26">path6</title>
					<path
   d="M 28.5,103.06 H 1.49 A 1.48976,1.4951 -180 0 0 0,104.55 v 13.59 a 1.48976,1.4951 -180 0 0 1.49,1.5 H 28.5 a 1.48976,1.4951 -180 0 0 1.49,-1.49 v -13.59 a 1.48976,1.4951 -180 0 0 -1.49,-1.5 z"
   class="st3"
   id="path28"
   inkscape:connector-curvature="0"
   style="fill:url(#linearGradient4594);stroke:none;stroke-width:31.76539993;stroke-linecap:butt" />
				</g>
				<g
   id="shape7762-11"
   transform="translate(26.6992,-37.2763)">
					<title
   id="title31">path8</title>
					<path
   d="M 28.5,103.06 H 1.49 A 1.48976,1.4951 -180 0 0 0,104.55 v 13.59 a 1.48976,1.4951 -180 0 0 1.49,1.5 H 28.5 a 1.48976,1.4951 -180 0 0 1.49,-1.49 v -13.6 a 1.48976,1.4951 -180 0 0 -1.49,-1.49 z"
   class="st3"
   id="path33"
   inkscape:connector-curvature="0"
   style="fill:url(#linearGradient4596);stroke:none;stroke-width:31.76539993;stroke-linecap:butt" />
				</g>
				<g
   id="shape7763-14"
   transform="translate(32.1701,-4.25139)">
					<title
   id="title36">rect10</title>
					<path
   d="m 0,119.29 a 0.349614,0.350866 -180 0 0 0.349606,0.35086 L 4.45,119.64 a 0.349614,0.350866 -180 0 0 0.349606,-0.35086 L 4.8,116.23 A 0.349614,0.350866 -180 0 0 4.450394,115.87914 L 0.35,115.88 a 0.349614,0.350866 -180 0 0 -0.349606,0.35086 z"
   class="st4"
   id="path38"
   inkscape:connector-curvature="0"
   style="fill:#ffffff;stroke:none;stroke-width:31.76539993;stroke-linecap:butt" />
				</g>
				<g
   id="shape7764-16"
   transform="translate(39.1748,-4.25139)">
					<title
   id="title41">rect12</title>
					<path
   d="m 0,119.22 a 0.415758,0.417246 -180 0 0 0.415748,0.41724 L 4.38,119.64 a 0.415758,0.417246 -180 0 0 0.415748,-0.41724 L 4.8,114.67 A 0.415758,0.417246 -180 0 0 4.384252,114.25276 L 0.42,114.26 a 0.415758,0.417246 -180 0 0 -0.415748,0.41724 z"
   class="st4"
   id="path43"
   inkscape:connector-curvature="0"
   style="fill:#ffffff;stroke:none;stroke-width:31.76539993;stroke-linecap:butt" />
				</g>
				<g
   id="shape7765-18"
   transform="translate(46.1795,-4.25139)">
					<title
   id="title46">rect14</title>
					<path
   d="m 0,119.13 a 0.507098,0.508914 -180 0 0 0.507087,0.5089 L 4.29,119.64 a 0.507098,0.508914 -180 0 0 0.507087,-0.5089 L 4.8,112.22 A 0.507098,0.508914 -180 0 0 4.292913,111.7111 L 0.51,111.71 a 0.507098,0.508914 -180 0 0 -0.507087,0.5089 z"
   class="st4"
   id="path48"
   inkscape:connector-curvature="0"
   style="fill:#ffffff;stroke:none;stroke-width:31.76539993;stroke-linecap:butt" />
				</g>
				<g
   id="shape7766-20"
   transform="translate(36.7402,-44.8055)">
					<title
   id="title51">circle16</title>
					<ellipse
   cx="1.77323"
   cy="117.86"
   rx="1.77323"
   ry="1.77958"
   class="st4"
   id="ellipse53"
   style="fill:#ffffff;stroke:none;stroke-width:31.76539993;stroke-linecap:butt" />
				</g>
				<g
   id="shape7767-22"
   transform="translate(42.9354,-40.9145)">
					<title
   id="title56">circle18</title>
					<ellipse
   cx="1.77323"
   cy="117.86"
   rx="1.77323"
   ry="1.77958"
   class="st4"
   id="ellipse58"
   style="fill:#ffffff;stroke:none;stroke-width:31.76539993;stroke-linecap:butt" />
				</g>
				<g
   id="shape7768-24"
   transform="translate(47.8583,-47.6693)">
					<title
   id="title61">circle20</title>
					<ellipse
   cx="1.77323"
   cy="117.86"
   rx="1.77323"
   ry="1.77958"
   class="st4"
   id="ellipse63"
   style="fill:#ffffff;stroke:none;stroke-width:31.76539993;stroke-linecap:butt" />
				</g>
				<g
   id="shape7769-26"
   transform="translate(31.5874,-40.3645)">
					<title
   id="title66">circle22</title>
					<ellipse
   cx="1.77323"
   cy="117.86"
   rx="1.77323"
   ry="1.77958"
   class="st4"
   id="ellipse68"
   style="fill:#ffffff;stroke:none;stroke-width:31.76539993;stroke-linecap:butt" />
				</g>
				<g
   id="shape7770-28"
   transform="translate(32.5134,-41.2432)">
					<title
   id="title71">path24</title>
					<path
   d="M 1.06,119.64 0,118.55 l 5.87,-5.71 6.16,4.34 4.81,-6.44 1.21,0.92 -5.69,7.61 -6.34,-4.47 z"
   class="st4"
   id="path73"
   inkscape:connector-curvature="0"
   style="fill:#ffffff;stroke:none;stroke-width:31.76539993;stroke-linecap:butt" />
				</g>
			</g>
		</g>
	</g>
</svg>

<?xml version="1.0" encoding="UTF-8" standalone="no"?>
<!DOCTYPE svg PUBLIC "-//W3C//DTD SVG 1.1//EN" "http://www.w3.org/Graphics/SVG/1.1/DTD/svg11.dtd">
<!-- Generated by Microsoft Visio, SVG Export Azure Monitor Data sources.svg Page-1 -->
<svg xmlns="http://www.w3.org/2000/svg" xmlns:xlink="http://www.w3.org/1999/xlink" xmlns:ev="http://www.w3.org/2001/xml-events"
		width="1.66977in" height="1.66166in" viewBox="0 0 120.224 119.639" xml:space="preserve" color-interpolation-filters="sRGB"
		class="st5">
	<style type="text/css">
	<![CDATA[
		.st1 {fill:#5ea0ef;stroke:none;stroke-linecap:butt;stroke-width:31.7654}
		.st2 {fill:#83b9f9;stroke:none;stroke-linecap:butt;stroke-width:31.7654}
		.st3 {fill:url(#grad0-10);stroke:none;stroke-linecap:butt;stroke-width:31.7654}
		.st4 {fill:#ffffff;stroke:none;stroke-linecap:butt;stroke-width:31.7654}
		.st5 {fill:none;fill-rule:evenodd;font-size:12px;overflow:visible;stroke-linecap:square;stroke-miterlimit:3}
	]]>
	</style>

	<defs id="Patterns_And_Gradients">
		<linearGradient id="grad0-10" x1="0" y1="0" x2="1" y2="0" gradientTransform="rotate(90 0.5 0.5)">
			<stop offset="0" stop-color="#5ea0ef" stop-opacity="1"/>
			<stop offset="1" stop-color="#0078d4" stop-opacity="1"/>
		</linearGradient>
	</defs>
	<g>
		<title>Page-1</title>
		<g id="group7562-1" transform="translate(31.7654,-34.0157)">
			<title>Azure Monitor Data sources</title>
			<g id="group7563-2">
				<title>g26</title>
				<g id="shape7564-3" transform="translate(7.38898,-5.1712)">
					<title>path2</title>
					<path d="M4.58 89.57 L4.58 81.52 a0.894488 0.89769 0 0 1 0.894488 -0.89453 L22.72 80.62 L22.72 76.13 L1.79 76.13
								 A1.78898 1.79538 -180 0 0 0 77.93 L0 89.68 L4.58 89.57 ZM0 105.66 L0 117.84 A1.78898 1.79538 -180
								 0 0 1.79 119.64 L22.62 119.64 L22.62 115.15 L5.47 115.15 a0.894488 0.89769 0 0 1 -0.894488 -0.89453
								 L4.58 105.55 L0 105.66 Z" class="st1"/>
				</g>
				<g id="shape7565-5" transform="translate(-2.8777E-13,-16.5693)">
					<title>path4</title>
					<path d="M0 100.94 L0 117.78 A1.85512 1.86176 -180 0 0 1.86 119.64 L18.64 119.64 A1.85197 1.8586 -180 0 0 20.5
								 117.8 L20.5 100.94 A1.85512 1.86176 -180 0 0 18.66 99.07 L1.86 99.07 A1.85512 1.86176 -180 0 0 0
								 100.93 L0 100.94 ZM15.81 102.55 A1.22835 1.23274 0 0 1 17.04 103.78 L17.04 114.95 A1.2315 1.2359
								 0 0 1 15.81 116.18 L4.67 116.18 A1.2315 1.2359 0 0 1 3.45 114.95 L3.45 103.77 A1.2315 1.2359 0 0
								 1 4.67 102.54 L15.81 102.55 Z" class="st2"/>
				</g>
				<g id="shape7566-7" transform="translate(26.6992,-2.70006E-13)">
					<title>path6</title>
					<path d="M28.5 103.06 L1.49 103.06 A1.48976 1.4951 -180 0 0 -0 104.55 L0 118.14 A1.48976 1.4951 -180 0 0 1.49
								 119.64 L28.5 119.64 A1.48976 1.4951 -180 0 0 29.99 118.15 L29.99 104.56 A1.48976 1.4951 -180 0 0
								 28.5 103.06 L28.5 103.06 Z" class="st3"/>
				</g>
				<g id="shape7567-11" transform="translate(26.6992,-37.2763)">
					<title>path8</title>
					<path d="M28.5 103.06 L1.49 103.06 A1.48976 1.4951 -180 0 0 0 104.55 L0 118.14 A1.48976 1.4951 -180 0 0 1.49
								 119.64 L28.5 119.64 A1.48976 1.4951 -180 0 0 29.99 118.15 L29.99 104.55 A1.48976 1.4951 -180 0 0
								 28.5 103.06 L28.5 103.06 Z" class="st3"/>
				</g>
				<g id="shape7568-14" transform="translate(32.1701,-4.25139)">
					<title>rect10</title>
					<path d="M0 119.29 a0.349614 0.350866 -180 0 0 0.349606 0.350858 L4.45 119.64 a0.349614 0.350866 -180 0 0 0.349606
								 -0.350858 L4.8 116.23 a0.349614 0.350866 -180 0 0 -0.349606 -0.350858 L0.35 115.88 a0.349614 0.350866
								 -180 0 0 -0.349606 0.350858 L0 119.29 Z" class="st4"/>
				</g>
				<g id="shape7569-16" transform="translate(39.1748,-4.25139)">
					<title>rect12</title>
					<path d="M0 119.22 a0.415758 0.417246 -180 0 0 0.415748 0.417236 L4.38 119.64 a0.415758 0.417246 -180 0 0 0.415748
								 -0.417236 L4.8 114.67 a0.415758 0.417246 -180 0 0 -0.415748 -0.417236 L0.42 114.26 a0.415758 0.417246
								 -180 0 0 -0.415748 0.417236 L0 119.22 Z" class="st4"/>
				</g>
				<g id="shape7570-18" transform="translate(46.1795,-4.25139)">
					<title>rect14</title>
					<path d="M0 119.13 a0.507098 0.508914 -180 0 0 0.507087 0.508902 L4.29 119.64 a0.507098 0.508914 -180 0 0 0.507087
								 -0.508902 L4.8 112.22 a0.507098 0.508914 -180 0 0 -0.507087 -0.508902 L0.51 111.71 a0.507098 0.508914
								 -180 0 0 -0.507087 0.508902 L0 119.13 Z" class="st4"/>
				</g>
				<g id="shape7571-20" transform="translate(36.7402,-44.8055)">
					<title>circle16</title>
					<ellipse cx="1.77323" cy="117.86" rx="1.77323" ry="1.77958" class="st4"/>
				</g>
				<g id="shape7572-22" transform="translate(42.9354,-40.9145)">
					<title>circle18</title>
					<ellipse cx="1.77323" cy="117.86" rx="1.77323" ry="1.77958" class="st4"/>
				</g>
				<g id="shape7573-24" transform="translate(47.8583,-47.6693)">
					<title>circle20</title>
					<ellipse cx="1.77323" cy="117.86" rx="1.77323" ry="1.77958" class="st4"/>
				</g>
				<g id="shape7574-26" transform="translate(31.5874,-40.3645)">
					<title>circle22</title>
					<ellipse cx="1.77323" cy="117.86" rx="1.77323" ry="1.77958" class="st4"/>
				</g>
				<g id="shape7575-28" transform="translate(32.5134,-41.2432)">
					<title>path24</title>
					<path d="M1.06 119.64 L0 118.55 L5.87 112.84 L12.03 117.18 L16.84 110.74 L18.05 111.66 L12.36 119.27 L6.02 114.8
								 L1.06 119.64 Z" class="st4"/>
				</g>
			</g>
		</g>
	</g>
</svg>
